X:1
T:Title
%%score { ( 1 3 ) | ( 2 4 ) }
L:1/8
M:4/4
K:Ab
V:1 treble nm="Grand Piano"
V:3 treble 
V:2 bass 
V:4 bass 
V:1
 z4 z2[Q:1/4=96] E2 | [CA]2 [CG]2 [DB]2 [DA]2 | [Cc]>[CB] [CA]>[DB] [Ec]2 c2 | e6 z2 |[M:3/4] e6 | %5
[M:1/4] E2 |[M:4/4] [CA]2 [CG]2 [DB]2 [DA]2 | [Cc]>[CB] [CA]>[DB] [Ec]2 [Ee]2 | %8
 [Ee]3 [EG] [=DB]2 [DB]2 |[M:7/8] E- E3 d3 |[M:1/4] cd |[M:4/4] [ce]2 [ce]4 [df]2 | %12
 [ce]2 [Ac]4 [Ec]2 | [Fd]2 [Af]4 [Fd]2 | [Ec]6 z2 | [Ed]2 [Bd]4 [Fd]d | [Ec]2 [Ac]4 [ce]2 | %17
 [c=d]2 [Bd]2 [Bd]2 [cd]2 | [Bd]6 z2 | [ce]2 [ce]4 [df]2 | [ce]2 [Ac]4 [Ec]2 | [Fd]2 [Af]4 [Fd]2 | %22
 [Ec]6 z2 | [=D_c]2 [Ac]2 [Gc]2 [Fc]2 | z2 [Ac]4 z2 | [ce]4 [Bd]4 |[M:3/4] [Ac]6 |] %27
V:2
 z4 z2 E,2 | [A,,E,]2 [A,,=E,]2 [A,,F,]2 [A,,E,]2 | [A,,E,]>[A,,E,] [A,,E,]>[A,,E,] [A,,A,]2 z2 | %3
 z2 [E,D]2 [E,D]2 z2 |[M:3/4] z2 [A,C]2 [A,C]2 |[M:1/4] E,2 | %6
[M:4/4] [A,,E,]2 [A,,=E,]2 [A,,F,]2 [A,,E,]2 | %7
 [A,,E,]>[A,,E,] [A,,E,]>[A,,E,] [A,,A,]2 [=A,,_G,]2 | [B,,G,]3 [B,,B,] [B,,A,]2 [B,,A,]2 | %9
[M:7/8] E,- E,3- [E,B,E]3 |[M:1/4][K:treble] AB |[M:4/4][K:bass] A,,2 [E,A,C]2 E,,2 [E,G,D]2 | %12
 A,,2 [E,A,C]2 C,2 [E,A,C]2 | D,2 [F,A,D]2 D,,2 [F,A,D]2 | A,,2 E,E, E,2[K:treble] EF | %15
 z4 z2 [E,B,D]2 | A,,2 [E,A,C]2 C,2 [E,A,C]2 | B,,2 [F,B,=D]2 B,,2 [F,B,D]2 | %18
 E,,2 E,E, E,2[K:treble] AB | A,,2 [E,A,C]2 E,,2 [E,G,D]2 | A,,2 [E,A,C]2 C,2 [E,A,C]2 | %21
 D,2 [F,A,D]2 D,,2 [F,A,D]2 | A,,2 E,E, E,2 EE | F,,2 [=D,F,]2 [D,G,]2 [D,A,]2 | %24
 E,,2 [E,A,C]2 [E,A,]2[K:treble] AB | E,,2 E,2 E,,2 E,2 |[M:3/4] z2 E,4 |] %27
V:3
 x8 | x8 | x8 | z2 G2 G2 B2 |[M:3/4] z2 A2 A2 |[M:1/4] x2 |[M:4/4] x8 | x8 | x8 |[M:7/8] x7 | %10
[M:1/4] x2 |[M:4/4] x8 | x8 | x8 | z2 [A,C][A,C] [A,C]2 cc | x8 | x8 | x8 | %18
 z2 [G,D][G,D] [G,D]2 cd | x8 | x8 | x8 | z2 [A,C][A,C] [A,C]2 cc | x8 | [Ec]2 z2 C2 cd | %25
 z2 [A,C]2 z2 [G,D]2 |[M:3/4] x6 |] %27
V:4
 x8 | x8 | x8 | x8 |[M:3/4] x6 |[M:1/4] x2 |[M:4/4] x8 | x8 | x8 |[M:7/8] G,- G,3 z z2 | %10
[M:1/4][K:treble] x2 |[M:4/4][K:bass] x8 | x8 | x8 | x6[K:treble] x2 | B,,2 [E,G,D]2 E,,2 z G | %16
 x8 | x8 | x6[K:treble] x2 | x8 | x8 | x8 | x8 | x8 | x6[K:treble] x2 | x8 | %26
[M:3/4] [A,,A,]2 z2 A,,2 |] %27

